X: 1
T: Goodbye To The Hills
M: 2/4
L: 1/8
R: polka
K: Ador
|: e>d cd | BG G>B | GB d/c/B |1 cA E2 :|2 cA A2 :|
|: a>b ae | e/d/e/f/ g2 | g>a ge |1 ba a2 :|2 BA A2 :|
